cssgg/browser.svg

<svg
  width="24"
  height="24"
  viewBox="0 0 24 24"
  fill="none"
  xmlns="http://www.w3.org/2000/svg"
>
  <path
    d="M4 8C4.55228 8 5 7.55228 5 7C5 6.44772 4.55228 6 4 6C3.44772 6 3 6.44772 3 7C3 7.55228 3.44772 8 4 8Z"
    fill="currentColor"
  />
  <path
    d="M8 7C8 7.55228 7.55228 8 7 8C6.44772 8 6 7.55228 6 7C6 6.44772 6.44772 6 7 6C7.55228 6 8 6.44772 8 7Z"
    fill="currentColor"
  />
  <path
    d="M10 8C10.5523 8 11 7.55228 11 7C11 6.44772 10.5523 6 10 6C9.44771 6 9 6.44772 9 7C9 7.55228 9.44771 8 10 8Z"
    fill="currentColor"
  />
  <path
    fill-rule="evenodd"
    clip-rule="evenodd"
    d="M3 3C1.34315 3 0 4.34315 0 6V18C0 19.6569 1.34315 21 3 21H21C22.6569 21 24 19.6569 24 18V6C24 4.34315 22.6569 3 21 3H3ZM21 5H3C2.44772 5 2 5.44772 2 6V9H22V6C22 5.44772 21.5523 5 21 5ZM2 18V11H22V18C22 18.5523 21.5523 19 21 19H3C2.44772 19 2 18.5523 2 18Z"
    fill="currentColor"
  />
</svg>

<svg viewBox="0 0 24 24" xmlns="http://www.w3.org/2000/svg"><g><path d="M4 8c.55 0 1-.45 1-1 0-.56-.45-1-1-1 -.56 0-1 .44-1 1 0 .55.44 1 1 1Z"/><path d="M8 7c0 .55-.45 1-1 1 -.56 0-1-.45-1-1 0-.56.44-1 1-1 .55 0 1 .44 1 1Z"/><path d="M10 8c.55 0 1-.45 1-1 0-.56-.45-1-1-1 -.56 0-1 .44-1 1 0 .55.44 1 1 1Z"/><path fill-rule="evenodd" d="M3 3C1.34 3 0 4.34 0 6v12c0 1.65 1.34 3 3 3h18c1.65 0 3-1.35 3-3V6c0-1.66-1.35-3-3-3H3Zm18 2H3c-.56 0-1 .44-1 1v3h20V6c0-.56-.45-1-1-1ZM2 18v-7h20v7c0 .55-.45 1-1 1H3c-.56 0-1-.45-1-1Z"/></g></svg>
